**kern	**kern	**dynam
*part1	*part1	*part1
*staff2	*staff1	*
*I"Piano	*	*
*clefF4	*clefG2	*
*k[f#c#]	*k[f#c#]	*
=1	=1	=1
(16ELL 16G	(16BLL 16e 16g	.
16F#J 16A	16f#J 16a	.
!	!LO:TX:a:i:t=ritard.	!
8G 8B	8g 8b	.
8CnJ) 8G 8cn	8eJ) 8g 8ccn	.
=	=	=
(16BBLL 16G 16B	(16dLL 16g 16dd	.
16CnJ 16G 16cn	16eJ 16g 16ccn	.
8D 8G 8B	8d 8g 8b	.
8DJ) 8A	8cnJ) 8d 8f# 8a	.
=	=	=
4GG 4G	4B 4g	.
8BBB 8BB	8B	.
=	=	=
8.BBBL 8.BB	8.BL	.
16DD#XK 16D#X	16d#XK	.
8FF#J 8F#	8f#J	.
=	=	=
8.BBL 8.B	8.bL	.
16FF#K 16F#	16f#K	.
8DD#XJ 8D#X	8d#XJ	.
=	=	=
8.CCn^L 8.Cn	8.cnL	.
16DD#XK 16D#X	16d#XK	.
8FF#J 8F#	8f#J	.
=	=	=
4Cn 4cn	4ccn	.
8FF# 8F#	8e 8f# 8a#X 8cc#X	f
=	=	=
*-	*-	*-
!!!system-decoration: {(s1,s2)}
